X:1
T:Title
%%score 1 2 3 4
L:1/8
M:4/2
K:F
V:1 treble nm="Part_1"
V:2 treble nm="Part_2"
V:3 bass nm="Part_3"
V:4 bass nm="Part_4"
V:1
 F4 G3 F/G/ A3 G/A/ B4 | A4 z8 z4 |[M:2/2] z2 z A GFE>E | FdcB A>AAd | %4
w: Ve- ni- * * * * * *|te|Ve- ni- te po- pu-|li Ve- ni- te po- pu- li Ve-|
[M:4/2] =BB/d/BB z2 z c AA/c/AA z2 z d | BB/d/ B3 cA B/4A/4G/4F/4 G3 G F4 |[M:4/4] z8 | z8 | %8
w: ni- te ve- ni- te Ve- ni- te Ve- ni- te ve-|ni- te ve- ni- te po- * * * * * pu- li|||
 (6:2:4z12 c6 B2 A4 | (6:2:8d6 c2 B4 A2 G2 ^F2 G2 A4 |[M:3/2] =B4 z ccG A>A A2 | %11
w: Cur- ri- te|ur- ri- te gen- * * * *|tes vi- de- te Do- mi- num|
[M:2/2] d>Bc>A B>GAG/G/ | F/D/4E/4F/4G/4A/4B/4 c2 A2 z2 | z8 | %14
w: de- scen- den- tem de- scen- den- tem de|coe- * * * * * * * lo||
[M:3/2] z A/G/^FF z G/=F/EE z F/E/DD |[M:4/2] E F2 E FA/B/ c/c/A/B/ cd c2 d4 | %16
w: * Ado- ra- te a- do- ra- te * Ado- ra- te|e- * * um * Ado- ra- te A- do- ra- te e- um|
[M:4/4] (6:2:6d4 c4 B4 A6 A2 A4 | (6:2:6d4 c4 c4 B6 B2 A4 |[M:2/4] (6:2:2B8 G4 |[M:3/2] A4 z8 | %20
w: et me- cum di- ci- te|et me- cum di- ci- te|di- ci-|te|
 d3 A A4 =B2 c2 | A=B/^c/ d4 c2 d4 |[M:2/2] z8 |[M:3/2] z4 z4 d4- | d2 ^F2 F4 G2 G2 | %25
w: A- do- ra- mus te|Chri- * * * * ste||A-|* do- ra- mus te|
 ^G2 A4 G2 A4- |[M:4/2] A4 z4 z8 |[M:3/2] z4 z4 z cBA | d>d c2 _e4 d4 |[M:2/2] z4 c2 A2 | %30
w: Chri- * * ste||et hym- num|di- ci- mus ti- bi|qui- a|
 z2 z c c>G A2 |[M:4/2] z2 z d/c/ =B c2 B c2 z c/_B/ A B2 A |[M:4/8] B2 z d/c/ | %33
w: per sanc- * tam|pas- si- o- nem tu- am pas- si- o- nem tu-|am re- de-|
[M:2/2] B2 A2 G2 z2 |[M:4/2] z c/B/ A/A/c/B/ A2 G2 A4 A3 F | G2 A2 =B c2 B c4 z4 | %36
w: mi- sti nos|re- de- mi- sti re- de- mi- sti nos au- di|pre- ces no- * * stras|
[M:2/2] z4 z d/d/ c/c/B/B/ |[M:3/2] AG A2 z8 |[M:2/2] z A/A/ =B/c/d/B/ ^c d2 c | d2 z2 z4 | %40
w: Et e- xau- di et e-|xau- di nos|et e- xau- * * * * * di|nos|
 z2 z E/E/ ^F/G/A/F/GG | z2 z A/A/ =B/^c/ d2 c | d2 z2 z2 z A/G/ | ^FD E2 D2 z G/F/ | %44
w: et e- xau- * * * * di|et e- xau- * * di|os mi- se-|re- re no- stri et e-|
 EEFF/E/ D3/2 C/D/E/F/D/ |[M:3/2] E F2 E F4 z4 |[M:7/2] d6 c2 B6 A2 G3 G A8 |] %47
w: xau- di nos et e- xau- * * * * *|* * di nos|et e- xau- * * di nos|
V:2
 z8 z8 | F4 G3 F/G/ A3 G/A/ B4 |[M:2/2] A3 c BAG>G | FBAG ^F>F F2 | %4
w: |e- ni- * * * * * *|te Ve- ni- te po- pu-|li ve- ni- te po- pu- li|
[M:4/2] z2 z G EE/G/EE z2 z F DD/F/ D2 | D4 E2 F4 E2 F4 |[M:4/4] z8 | z8 | (6:2:4z12 A6 G2 F4 | %9
w: Ve- ni- te ve- ni- te Ve- ni- te ve- ni-|te po- * pu- li|||Cur- ri- te|
 (6:2:8B6 A2 G4 ^F2 G2 A2 G4 F2 |[M:3/2] GGGD E>E E2 z4 |[M:2/2] z4 z4 | z4 A>FG>E | %13
w: ur- ri- te gen- * * * *|tes vi- de- te Do- mi- num||de- scen- den- tem|
 F>DEE/E/ D/E/4F/4G/4A/4B/4c/4 d2 |[M:3/2] ^c2 z d/c/ =BB z c/_B/ AA z B/A/ | %15
w: de- scen- den- tem de Coe- * * * * * * *|lo * Ado- ra- te A- do- ra- te * Ado-|
[M:4/2] G_A G2 FF/G/ =A/A/F/G/ A B2 A B4 |[M:4/4] (6:2:6B4 A4 G4 ^F6 F2 F4 | %17
w: ra- te e- um * Ado- ra- te * Ado- ra- te e- um|et me- cum di- ci- te|
 (6:2:6G4 E4 F4 G6 G2 C4 |[M:2/4] (6:2:2D8 E4 |[M:3/2] F4 z2 A3 E E2 | ^FF G4 F2 G4 | z4 A3 E ^F4 | %22
w: et me- cum di- ci- te|di- ci-|te A- do- ra-|mus te Chri- * ste|A- do- ra-|
[M:2/2] G2 A2 ^F G2 F |[M:3/2] G4 z8 | z12 | z4 z4 z2 A2- |[M:4/2] A2 ^C2 C4 D2 E2 ^F3 G | %27
w: mus te Chri- * *|ste||A-|* do- ra- mus te Chri- *|
[M:3/2] E2 F4 E2 FAG^F | B>B A2 c4 =B4 |[M:2/2] c2 A2 z2 z c | c>G A2 z2 z A/G/ | %31
w: * * * ste et Be- ne-|di- ci- mus ti- bi|Qui- ~a per|Sanc- * tam pas- si-|
[M:4/2] ^F G2 F G2 z G/=F/ E F2 E F4 |[M:4/8] z d/c/B/B/B/A/ |[M:2/2] G3 ^F G2 z c/B/ | %34
w: o- nem tu- am pas- si- o- nem tu- am|re- de- mi- sti re- de-|mi- sti nos re- de-|
[M:4/2] A/A/A/G/ F/F/A/G/ F2 E2 F4 z4 | z8 G3 E F2 G2 |[M:2/2] A B2 A BB/B/ A/A/G/G/ | %37
w: mi- sti re- de- mi- sti re- de- mi- sti nos|au- di pre- ces|no- * * stras et e- xau- di et e-|
[M:3/2] ^FG F2 z2 z A/A/ =B/^c/ d2 c |[M:2/2] d4 z4 | z4 z A/A/ =B/c/d/B/ | ^c d2 c d2 z2 | %41
w: xau- di nos et e- xau- * * di|nos|et e- xau- * * *|* * di nos|
 z4 z2 z A/G/ | ^FD E2 D2 z2 | z4 z d/c/=BB | cc/B/AA B4 |[M:3/2] z4 z2 A4 G2 | %46
w: mi- se-|re- re no- stri|et e- xau- di|nos et e- xau- di nos|et e-|
[M:7/2] F2 F2 F2 E2 D3/2 C/D/E/F/D/ E2 F4 E2 F8 |] %47
w: xau- di et e- xau- * * * * * * * di nos|
V:3
 z8 z8 | z8 z8 |[M:2/2] z8 | z8 |[M:4/2] z8 z8 | z8 z8 |[M:4/4] (6:2:6F,6 E,2 D,4 G,6 F,2 E,4 | %7
w: ||||||Cur- ri- te Cur- ri- te|
 (6:2:10F,2 G,2 F,2 E,2 D,2 C,2 B,,6 A,,2 B,,2 G,,2 | (6:2:6F,,2 G,,2 A,,2 B,,2 C,4 F,,12 | %9
w: gen- * * * * * * * * *|* * * * * tes|
 (6:2:4z12 z4 z4 D,4 |[M:3/2] G,2 G,,G,, C,2 C,2 F,>F, F,2 |[M:2/2] B,>G,A,>F, G,>E,F,E,/E,/ | %12
w: Vi|de- te vi- de- te Do- mi- num|de- scen- den- tem de- scen- den- tem de|
 D,2 C,2 F,>D,_E,>C, | D,>B,,C,A,,/A,,/ B,,4 |[M:3/2] A,,2 z2 z4 z4 |[M:4/2] z8 z8 | %16
w: Coe- lo de- scen- den- tem|de- scen- den- tem de Coe-|||
[M:4/4] (6:2:6B,,4 F,4 G,4 D,6 D,2 D,4 | (6:2:6=B,,4 C,4 A,,4 G,,6 G,,2 F,,4 | %18
w: Et me- cum di- ci- te|et me- cum di- ci- te|
[M:2/4] (6:2:2B,,8 C,4 |[M:3/2] F,,4 F,3 ^C, C,4 | D,4 D,3 D, G,2 E,E, | D,3 C,/B,,/ A,,4 D,4 | %22
w: di- ci-|te A- do- ra-|mus A- do- ra- mus te|Chri- * * * ste|
[M:2/2] z8 |[M:3/2] G,6 =B,,2 B,,3 C, | D,4 D,2 D,2 G,3 F, | E,8 A,,4 | %26
w: |A- do- ra- *|* mus te Chri\-- *|* ste|
[M:4/2] z8 D,2 ^C,2 D,2 D,=B,, |[M:3/2] C,8 F,2 z2 | z12 |[M:2/2] z4 C,2 F,F, | %30
w: A- do- ra- mus te|Chri- ste||Qui- ~a per|
 E,2 F,F,/F,/ G,2 F,F,/E,/ |[M:4/2] D,C, D,2 G,,4 z8 |[M:4/8] z B,,/A,,/G,,/G,,/B,,/F,,/ | %33
w: Sanc- tam pas- si- o- nem pas- si-|o- nem tu- am|re- de- mi- sti re- de-|
[M:2/2] G,,2 D,2 G,,C,/B,,/ A,,/A,,/A,,/G,,/ |[M:4/2] F,,F,,F,F, F,2 C,2 F,,4 F,3 D, | %35
w: mi- sti nos re- de- mi- sti re- de-|mi- sti re- de- mi- sti nos au- di|
 E,2 F,2 G,4 C,4 z4 |[M:2/2] z4 z B,,/B,,/ F,/F,/G,/G,/ | %37
w: pre- ces no- stras|St e- xau- di et e-|
[M:3/2] D,_E,D,D,/C,/ =B,,C, A,,2 G,,G,/F,/E,E, |[M:2/2] D,2 G,,2 z2 z A,,/A,,/ | %39
w: xau- di nos mi * re- re no- stri mise- * re- re|no- stri Et e-|
 =B,,/C,/D,/B,,/^C, D,2 C, D,2 | z4 z D,/D,/ E,/^F,/G,/E,/ | ^F, G,2 F, G,2 z2 | %42
w: xau- * * * * * di nos|Et e- xau- * * *|* * di nos|
 z2 z A,/G,/ ^F,D, A,2 | D,2 z A,/G,/ ^F,D, G,2 | C,2 z D,/C,/ B,,3/2 A,,/B,,/C,/D,/B,,/ | %45
w: mi- se- re- re no-|stri mi- se- re- re no-|stri Et e- xau- * * * * *|
[M:3/2] C,2 C,2 F,,2 F,4 E,2 |[M:7/2] D,2 D,2 D,2 A,,2 B,,4 C,6 C,2 F,,8 |] %47
w: * di nos Et e-|xau- di Et e- xau- * di nos|
V:4
 F,4 E,4 F,4 D,4 | F,4 E,4 F,4 D,4 |[M:2/2] F,,3 F,, B,,F,C,>C, | F,B,,F,G,D,>D, D,2 | %4
[M:4/2] G,,4 C,4 F,,4 B,,4 | B,,4 C,8 F,,4 |[M:4/4] (6:2:6F,6 E,2 D,4 G,6 F,2 E,4 | %7
 (6:2:10F,2 G,2 F,2 E,2 D,2 C,2 B,,6 A,,2 B,,2 G,,2 | (6:2:7F,,2 G,,2 A,,2 B,,2 C,4 F,,8 F,,4 | %9
 (6:2:5B,,6 F,,2 G,,4 D,8 D,4 |[M:3/2] G,,4 C,4 F,,>F,, F,,2 |[M:2/2] B,>G,A,>F,G,>E, F,E,/E,/ | %12
 D,2 C,2 F,>D,_E,>C, | D,>B,,C,A,,/A,,/ B,,4 |[M:3/2] A,,2 D,2 G,,2 C,2 F,,2 B,,2 | %15
[M:4/2] C,4 F,,4 F,,4 B,,4 |[M:4/4] (6:2:6B,,4 F,,4 G,,4 D,6 D,2 D,4 | %17
 (6:2:6=B,,4 C,4 A,,4 G,,6 G,,2 F,,4 |[M:2/4] (6:2:2B,,8 C,4 |[M:3/2] F,,4 F,3 ^C, C,4 | %20
 D,8 G,2 E,2 | D,3 C,/B,,/ A,,4 D,4 |[M:2/2] =B,,2 C,2 D,4 |[M:3/2] G,6 =B,,2 B,,3 C, | %24
 D,4 D,2 D,2 G,3 F, | E,8 A,,2 A,,2- |[M:4/2] A,,2 A,,2 A,,4 D,2 ^C,2 D,2 D,=B,, | %27
[M:3/2] C,8 F,,F,,G,,D, | B,,>B,, F,,2 C,4 G,,4 |[M:2/2] C,2 F,,2 C,2 F,,F, | %30
 E,2 F,F, E,2 F,F,/E,/ |[M:4/2] D,C, D,2 G,,4 C,4 F,,4 |[M:4/8] B,,B,,/A,,/G,,/G,,/B,,/F,,/ | %33
[M:2/2] G,,2 D,2 G,,C,/B,,<A,,G,,/ |[M:4/2] F,,6 C,2 F,,4 F,3 D, | E,2 F,2 G,4 C,3 C, D,2 E,2 | %36
[M:2/2] F,4 B,,B,,/B,,/F,,/F,,/G,,/G,,/ |[M:3/2] D,_E,D,D,/C,/=B,,C, A,,2 G,,G,/F,/ E,2 | %38
[M:2/2] D,2 G,,2 A,,3 A,,/A,,/ | =B,,/C,/D,/B,,/^C, D,2 C, D,2 | A,,4 D,D,/D,/ E,2 | %41
 ^F, G,2 F, G,2 A,2 | D,2 A,,2 D,2 A,,2 | D,2 A,,2 D,2 G,,2 | C,2 D,>C, B,,4 | %45
[M:3/2] C,4 F,,2 F,4 E,2 |[M:7/2] D,2 D,2 D,2 A,,2 B,,4 C,6 C,2 F,,8 |] %47

